X:095 
T:Kerryman's Clog* (hornpipe), The
B:CRE5.219 (gan ainm)
F:file ID: cre.5/095kerry_c
N:In mm 10 and 14 /agae/ is my alternative to /ac'ae/.
/a3 e/ would work too.
M:4/4
Q:150
R:hornpipe
K:G
D2|G2DG B2GB|dfed cAAG|F2DF A2-AB/c/|defe dcAF|
G2DG B2GB|dfed cAAG|FDFA cAFA|DGGF G2:|
|:de|f2df afdf|g2dg a[gc']ae|f2de (3fgf de|fdcd Bcde|
f2df afdf|g2dg a[gc']ae|defe dcAF|G2G2G2:|

%%%

